X:1
T:Title
%%score { ( 1 3 ) | ( 2 4 ) }
L:1/8
Q:1/4=100
M:4/4
K:Ab
V:1 treble nm="Grand Piano"
V:3 treble 
V:2 bass 
V:4 bass 
V:1
 A>A A>A A2 A2 | c4 A4 | c>c c>c [Ee]2 cA | B6 z2 | B>B B>B B2 B2 | d4 B4 | %6
w: Charles~K.~Langley * * * * *||||||
 G>[CEA] [DEB]>[CE] [B,EG]2 [A,=DF]2 | [G,E]6 z2 | [CA]2 [CE]>[CE] [CE]2 c>B | %9
w: |||
 [CA]2 C>C z z/ F/ G>A | B2 E>E E2 d>d | c2- [Ec-]>[Ec] z z/ E/ F>G | z4 z2 e2 | z d3 z2 F2 | %14
w: |||||
 EE[EA][Ec] [DB]2 [DE]2 | [CA]6 z2 |] %16
w: ||
V:2
 A,>A, A,>A, A,2 A,2 | C4 A,4 | [A,E]>[A,E] [E,A,E]>[E,A,E] [C,A,]2 A,-[C,A,] | E2 z2 z4 | %4
 [E,G,E]>[E,G,E] [E,G,E]>[E,G,E] [E,G,E]2 [E,G,E]2 | [E,B,E]4 [E,G,E]4 | %6
 [E,B,E]>A,, G,,>A,, B,,2 B,,2 | z2 D2 C2 B,2 | [A,,E,]2 [A,,A,]>[A,,A,] [A,,A,]2 z2 | %9
 [A,,E,]2 [A,,E,]>[A,,E,] [A,,A,]2 z2 | [E,G,E]2 [E,G,]>[E,G,] [E,G,]2 z2 | %11
 [A,,A,]2 [C,A,]>[E,A,] [A,CE]2 z2 | [A,C][A,C] z2[K:treble] [A,CE][A,CE] [A,C_G]>[K:bass]A, | %13
 [D,A,][D,A,] [D,A,]2 [D,A,][A,D][A,D]A, | [E,A,C][E,A,C][C,A,][A,,A,] [E,G,]2 [E,G,]2 | %15
 [A,,A,]6 z2 |] %16
V:3
 x8 | x8 | z4 z2 E2 | z2 E>E E2 E2 | x8 | x8 | x8 | x8 | x8 | z4 [CE]2 z2 | x8 | E2 z2 A2 z2 | %12
 AE A>c ee z z/ _G/ | [Fe]F F2 [Fd]F z D | x8 | x8 |] %16
V:4
 x8 | x8 | z4 z2 .A,,2 | [E,G,]6 z2 | x8 | x8 | x8 | E,6 z2 | x8 | x8 | x8 | x8 | %12
 x4[K:treble] x7/2[K:bass] x/ | z4 z D,3 | x8 | x8 |] %16

